packages/icon/src/svg/dashboard.icon.svg

<svg viewBox="0 0 24 24" xmlns="http://www.w3.org/2000/svg"><path d="M2 2h12v10H2V2zm2 8V4h8v6H4zm12-8h6v10h-6V2zm2 8V4h2v6h-2zM2 14h7v8H2v-8zm2 6v-4h3v4H4zm7-6h11v8H11v-8zm2 6h7v-4h-7v4z" /></svg>

<?xml version="1.0" encoding="UTF-8"?>
<svg width="24px" height="24px" viewBox="0 0 24 24" version="1.1" xmlns="http://www.w3.org/2000/svg" xmlns:xlink="http://www.w3.org/1999/xlink">
    <!-- Generator: Sketch 46.1 (44463) - http://www.bohemiancoding.com/sketch -->
    <title>Icon/dashboard.icon</title>
    <desc>Created with Sketch.</desc>
    <defs>
        <path d="M2,2 L14,2 L14,12 L2,12 L2,2 Z M4,10 L4,4 L12,4 L12,10 L4,10 Z M16,2 L22,2 L22,12 L16,12 L16,2 Z M18,10 L18,4 L20,4 L20,10 L18,10 Z M2,14 L9,14 L9,22 L2,22 L2,14 Z M4,20 L4,16 L7,16 L7,20 L4,20 Z M11,14 L22,14 L22,22 L11,22 L11,14 Z M13,20 L20,20 L20,16 L13,16 L13,20 Z" id="path-1"></path>
    </defs>
    <g id="Symbols" stroke="none" stroke-width="1" fill="none" fill-rule="evenodd">
        <g id="Icon/dashboard">
            <mask id="mask-2" fill="white">
                <use xlink:href="#path-1"></use>
            </mask>
            <use id="dashboard" fill="#000000" xlink:href="#path-1"></use>
            <g id="Color/Neutral/White" mask="url(#mask-2)" fill="#FFFFFF">
                <rect id="222222-Fill" x="0" y="0" width="24" height="24"></rect>
            </g>
        </g>
    </g>
</svg>
